dist/img/about/about_icon_6.svg

<svg width="50" height="50" viewBox="0 0 50 50" fill="none" xmlns="http://www.w3.org/2000/svg">
<path d="M20.7334 48.2249L30.9476 27.5733M29.9573 12.2124L21.403 29.5073C20.8419 30.6455 20.7806 31.9437 21.238 33.1219L24.2938 41.0358M23.6901 24.8835L27.458 34.638M27.1845 17.8188L30.9523 27.5733M24.289 41.0358L32.683 38.1548C33.9327 37.7279 34.9513 36.8476 35.5124 35.7095L44.0667 18.4146M37.7996 31.0901L27.4533 34.6424M41.2939 24.0254L30.9476 27.5778M36.498 9.8916L29.5471 23.9409M41.7466 12.1991L34.7956 26.2484" stroke="black" stroke-width="1.25" stroke-linecap="round" stroke-linejoin="round"/>
<path d="M16.06 42.3917L15.1615 19.7639M6.56689 6.59018L7.31892 25.5424C7.36775 26.7882 7.96352 27.9633 8.96947 28.8115L15.7426 34.5148M7.11871 20.4796L15.4642 27.5083M6.81106 12.7397L15.1566 19.7683M22.6817 6.06888L23.2336 19.9539L15.4642 27.5038M15.7475 34.5148L18.404 31.9349M22.9259 12.214L15.1566 19.7639M11.4453 1.75273L12.0557 17.1442M17.4322 1.55835L18.0426 16.9498" stroke="#969696" stroke-width="1.25" stroke-linecap="round" stroke-linejoin="round"/>
</svg>

<svg width="50" height="50" viewBox="0 0 50 50" fill="none" xmlns="http://www.w3.org/2000/svg"><path d="M20.733 48.225l10.215-20.652m-.99-15.36l-8.555 17.294a4.473 4.473 0 00-.165 3.615l3.056 7.914m-.604-16.152l3.768 9.754m-.273-16.82l3.767 9.755M24.29 41.036l8.394-2.881c1.25-.427 2.268-1.307 2.83-2.446l8.554-17.294M37.8 31.09l-10.347 3.552m13.84-10.617l-10.345 3.553m5.55-17.686l-6.95 14.049m12.199-11.742l-6.951 14.05" stroke="#000" stroke-width="1.25" stroke-linecap="round" stroke-linejoin="round"/><path d="M16.06 42.392l-.898-22.628M6.566 6.59l.752 18.952c.049 1.246.645 2.421 1.65 3.27l6.774 5.703M7.119 20.48l8.345 7.028M6.811 12.74l8.346 7.028m7.525-13.7l.552 13.886-7.77 7.55m.284 7.01l2.656-2.58m4.522-19.72l-7.77 7.55m-3.71-18.011l.61 15.391m5.376-15.586l.61 15.392" stroke="#969696" stroke-width="1.25" stroke-linecap="round" stroke-linejoin="round"/></svg>.9349M22.9259 12.214L15.1566 19.7639M11.4453 1.75273L12.0557 17.1442M17.4322 1.55835L18.0426 16.9498" stroke="#969696" stroke-width="1.25" stroke-linecap="round" stroke-linejoin="round"/>
</svg>
